X:545
T:Schiarazula Marazula
Z:Jack Campin, http://www.campin.me.uk/
F:Jack Campin's Nine-Note Tunebook
% last edit 03-02-2013
V:3 transpose -12
V:4 transpose -12
N:needs two each of instruments an octave apart
M:C|
L:1/8
Q:1/2=120
K:GDor
[V:1] d2|:d2c2 d2c2|B2B2 B2A2|G2F2 G2A2 |[1 G2G2 G2d2:|[2  G2G2 G2||
[V:2] G2|:G4   G4  |G6     FE|D4   D4   |[1 D4   D4  :|[2  D6     ||
[V:3] B2|:B6     c2|d4   d4  |B4   B4   |[1 B4   B4  :|[2  B6     ||
[V:4] G2|:G4   G4  |G4   G4  |G4   G4   |[1 G4   G4  :|[2  G6     ||
%
[V:1] cB| A2G2 A2B2|A2G2 A2dc|B2G2 G2^F2|[1 G2G2 G2  :|[2  G6     |]
[V:2] G2| F4   F4  |F4   F4  |D4   D4   |[1 D6       :|[2  D6     |]
[V:3] E2| c4   c4  |c6     BA|B4   A4   |[1 B6       :|[2 =B6     |]
[V:4] C2| F4   F4  |F4   F4  |G4   D4   |[1 G6       :|[2  G6     |]

